X:1
T:Nel mezzo del giardin
T:Antonio Duetto
T:Source : Symphonia Angelica---Anversa---P.Phalesio & G.Bellero---1590. Editor : André Vierendeels (24/01/14).
T:-natural
T:-natural
T:Nel mezzo del giardin
C:Antonio Duetto
%%score [ 1 [ 2 3 ] 4 ]
L:1/8
Q:1/4=94
M:4/4
K:F
V:1 treble nm="Canto" snm="C"
V:2 treble-8 nm="Tenor 1" snm="T 1"
V:3 treble-8 nm="Tenor 2" snm="T 2"
V:4 bass nm="Basso" snm="B"
V:1
 c4 A3 A | B2 B2 G3 G | A2 A2 F4 | G2 G2 E3 E | F2 F2 D2 d2 | =B3 B c2 c2 | A3 A B2 B2 | A2 GF G4 | %8
w: Nel mez- zo|del giar- din ve-|ra'un pra- tel|lo, nel mez- zo|del giar- din,- nel|mez- zo di giar-|din ve- ra'un pra-|tel- * * *|
 A4 z2 d2 | d2 c2 A2 AB | c6 Bc | d2 D2 z2 FG | A2 A2 z2 EF | G4 G4- | G2 A2 A2 =B2 | c3 c d3 d | %16
w: lo, tut-|to ve- sti- to d'her-|be- t'e di|fio- ri, e di|fio- ri, e di|fio- ri,|_ che ri- co|pi- 'un va- go'e|
 c2 c4 B2 | c4 z4 | c3 B c2 A2 | G2 AA G2 E2 | F2 D2 z2 F2- | FE F2 D2 C2 | c3 B c2 A2 | G4 dd=BB | %24
w: bel ca- pel-|lo,|te- sto di mir-|ti'e ver- deg- gia- t'al-|lo- ri, te-|* sto di mir- ti,|te- sto di mir-|ti'e ver- deg- dia- t'al-|
 c2 A2 z2 G2 | A3 A B2 G2 | G4 G4 | z4 A4 | G4 F2 F2- | F2 E2 D4 | E2 E4 F2 | F6 E2 | F8 | F8 | %34
w: lo- ri, e|ver- deg- gia- t'al-|lo- ri,|pa-|rea ch'ar- t'e|_ na- tu-|r'ha- ves- ser|quel- lo|fat-|to,|
[M:3/2] A4 A4 B4 | c6 c2 c4 | B4 A8 | A8 z4 | G4 B4 c4 | d6 d2 d4 | c8 B4 |[M:4/4] c4 z2 G2 | %42
w: per stan- za|de la sci-|vi'a- mo-|ri,|per stan- za|de la sci-|vi'a- mo-|ri, i-|
 G2 A2 B2 B2 | A2 AB c4 | G3 A B4 | F3 G A2 F2- | F2 ED E4 | F8 | z8 | z2 c3 c c2 | B2 B2 AG AB | %51
w: vi tro- v'a- li-|dor di cac- ciar,|di cac- ciar,|di cac- ciar stan-||co,||so- vr'un let-|to di fior _ _ _|
 c2 c2 c2 B2 | A4 G4 | z4 z2 c2- | cc c2 B2 B2 | AG AB c4- | c2 B2 A2 A2 | G8- | G8 | G8 |] %60
w: _ pur- pu- reo'e|bian- co,|so-|* vr'un let- to di|fior _ _ _ _|_ pur- pr- reo'e|bian-||co.|
V:2
 z4 f4 | d3 d e2 e2 | c3 c d2 d2 | B4 c2 c2 | A3 A B2 B2 | G3 G A2 A2 | d3 e f4 | c8 | z4 z2 f2 | %9
w: mez-|zo del giar- din|ve- ra'un pra- tel-|lo, nel mez-|zo del giar- din|ve- ra'un pra- tel-|lo, * *|tut-|to|
 f2 e2 f2 fg | a2 AB c2 d2 | z2 de f2 d2 | fg a2 e2 cd | e2 dc d4 | e2 f2 f2 f2 | g3 g b3 b | %16
w: ve- sti- to d'her- be-|t'e di fio- ri, e|di fio- ri, e|di fio- ri, e di fio-|ri, * * *|che ri- co pi-|'un va- go'e bel|
 a2 g2 g4 | g4 z2 g2- | gf g2 e2 c2 | z2 c3 B c2 | A2 G2 AAFF | G2 d2 z2 G2 | AAdd c2 d2 | %23
w: ca- pel- lo,|te sto|_ di mir- ti, te-|sto di mir-|ti'e ver- deg- gia- t'al- lo-|ri, e ver-|deg- gia- t'al- lo- ri, te-|
 z2 g3 f g2 | e2 d2 z2 d2 | f3 f f2 e2 | d4 e4 | z4 f4- | f2 e4 d2- |"^-natural" d2 c4 B2 | c8 | %31
w: sto di li-|ri e ver-|deg- gia- t'al- lo-|ri, pa-|rea|ch'ar- t'e na-|_ tu- r'ha-|ves-|
 d4 c2 B2 | A2 d2 c4 | d8 |[M:3/2] f4 f4 g4 | a6 a2 a4 | g4 e8 | ^f8 z4 | d4 d4 g4 | f6 f2 f4 | %40
w: ser quel- lo|fat- to, *|per|stan- per de|la sci- vi'a-|mo- ri,|per|stan- za de|la sci- vi'a-|
 e4 d8 |[M:4/4] e4 z2 e2 | e2 c2 d2 e2 | f4 z4 | e3 f g4 | d3 e f4 | g8 | a8 | z4 z2 f2- | %49
w: mo- ri,|i- vi|tro- v'a- li- dor|di|cac- ciar, di|cac- ciar stan-|co,|so-|vr'un|
 ff f2 e2 e2 | dc de f2 f2 | f2 e2 d4 | c2 e3 e e2 | d2 d2 cB cd | e2 c2 d2 e2 | f4 g4 | %56
w: * let- to di fior|pur- _ _ _ _ pu-|reo'e bian- co,|so- vr'un let- to|di fior pur- _ _ _|_ pu- reo'e bian-|co, pur-|
 z2 g2 e2 f2 | e6 dc | d8 | e8 |] %60
w: pu- reo'e bian-|co. * *||Nel|
V:3
 z8 | z4 c4 | A3 A B2 B2 | G3 G A2 A2 | F4 G4 | z2 g2 e3 e | f2 f2 d3 d | e2 f4 e2 | f4 z2 B2 | %9
w: |mez-|zo del giar- din|ve- ra'un pra- tel-|lo, nel|mez- zo del|giar- din ve- ra'un|pra- tel- lo,|tut- to|
 B2 G2 d2 dd | f4 ef g2 | d4 de f2 | d2 AB c4- |"^-natural" c2 BA B4 | c2 c2 d2 d2 | e3 e f3 f | %16
w: ve- sti- to d'her- be-|t'e di fio- ri,|e di fio- ri,|e di fio- ri,||che ri- co pi-|'un va- go'e bel|
 f2 e2 d4 | e2 e3 d e2 | c2 d2 z2 f2- | fe f2 d2 c2 | z4 c3 B | c2 A2 G2 G2- | GF G2 E2 D2 | %23
w: ca- pel- lo,|te- sto di mir-|ti, te- sto|* di mir- ti, te-|sto di|mir- ti, te- sto|di mir- ti,- e ver-|
 BBGG A2 G2 | z2 A2 B3 B | c4 d2 c2- |"^-natural" c2 B2 c4 | z4 c4 | c4 A4 | B2 G2 G4 | G2 A4 A2 | %31
w: deg- gia- t'al- lo- ri, e|ver- deg- gia-|t'al- lo- ri,|* * pa-|rea|ch'ar- t'e|na- tu- r'ha-|ves- ser quel-|
 B2 AG A2 B2 | c2 B4 A2 | B8 |[M:3/2] c4 d4 d4 | f6 f2 f4 | d8 ^c4 | d8 z4 | B4 B4 G4 | A6 A2 B4 | %40
w: lo * * * fat-|to, * *|per|stan- za de|la sci- vi'a-|mo- ri,|per|stan- za de|la sci- vi'a-|
 G4 G8 |[M:4/4] G4 z2 c2 | c2 A2 G2 G2 | F4 AB c2- | c2 G3 A B2- | B2 F3 G A2 | G8 | F4 z2 c2- | %48
w: mo- ri,|i- vi|tro- v'a- li- dor|di cac- ciar, di|_ cac- ciar, di|_ cac- ciar stan-|co,|so- vr'un|
 cc c2 B2 B2 | AG AB c2 c2 | F2 F2 F4 | G8 | z4 z2 g2- | gg g2 f2 f2 | ed ef g4 | c2 f4 e2 | %56
w: * let- to di fior|pur- _ _ _ _ pu-|reo'e bian- co,|so-|vr'un|* let- to di fior|pur- _ _ _ _|pu- reo'e bian-|
 d4 c2 d2 | =B2 B2 c4- | c4 =B4 | c8 |] %60
w: co, pur- pu-|reo'e bian- co.||to-|
V:4
 z8 | z8 | F,4 D,3 D, | _E,2 E,2 C,3 C, | D,2 D,2 G,,4 | G,,4 z4 | z8 | z8 | z4 B,,4 | %9
w: ||mez- zo del|giar- din ve- ra'un|pra- tel- lo,|tut-|||to|
 B,,2 C,2 D,2 D,G, | F,2 F,G, A,2 G,2 | G,A, B,4 B,2 | z2 F,G, A,4 | G,8 | z2 F,2 D,2 D,2 | %15
w: ve- sti- to d'her- be-|t'e di fio- ri, e|di fio- ri, e-|di fio- ro,|che|ri- co pi-|
 C,3 C, B,,3 B,, | F,2 C,2 G,4 | C,2 C3 B, C2 | A,2 G,2 A,3 B, | C2 F,2 G,2 C,2 | F,3 E, F,2 D,2 | %21
w: 'un va- go'e bel|ca- pel- lo,|te- sto di mir-|ti'e- ver- deg- gia-|t'al- lo- ri, te-|sto di mir- ti'e|
 C,2 D,D, G,,2 C,2 | A,,2 G,,2 G,3 F, | G,2 E,2 D,2 G,G, | C,C, D,2 G,,2 G,2 | F,3 F, B,2 C2 | %26
w: ver- dig- gia- t'al- lo-|ri, te- sto di|mi- ri'e ver- deg- gia-|t'a- lo- ri, e ver-|dig- gia- t'al- lo-|
 G,4 C,4 | z4 F,4 | C,4 D,4 | B,,2 C,2 G,,4 | C,2 A,,4 F,,2 | B,,C, D,E, F,2 G,2 | F,8 | B,,8 | %34
w: ri, pa-|rea|vh'ar- t'e|na- tu- r'ha-|ves- ser quel-|lo * * * * fat-|to,|per|
[M:3/2] F,4 D,4 G,4 | F,6 F,2 F,4 |"^-natural" G,4 A,8 | D,8 z4 | G,4 G,4 _E,4 | D,6 D,2 B,,4 | %40
w: stan- za de|la sci- vi'a-|mo- ri,|per|stan- za de|la- sci- vi'a-|
 C,4 G,,8 |[M:4/4] C,8 | z8 | z4 A,,3 B,, | C,4 G,,3 A,, | B,,4 F,,4 | C,8 | z2 F,3 F, F,2 | %48
w: mo- ri,|di||cac- ciar,|di cac- ciar|stan- co,|so-|vr'un let- to|
 E,2 E,2 D,C, D,E, | F,2 F,,2 C,2 A,,2 | D,8 | C,4 z4 | z2 C3 C C2 | B,2 B,2 A,G, A,B, | %54
w: di fior pur- _ _ _|_ pu- reo'e bian-|co,|so-|vr'un let- to|di fior pur- _ _ _|
 C2 A,2 G,2 G,2 | F,4 C,4 | G,4 A,2 F,2 | G,8- | G,8 | C,8 |] %60
w: _ pu- reo'e bian-|co, pur-|pu- reo'e bian-|co.|||

